X: 28422
T: Mull Rant, The
R: strathspey
M: 4/4
K: Gmajor
"G"D>E G>E "D"A<A A2|"G"D>E G>B "C"c<c c>e|
"G"d>B g>B "Am"A<A A>B|"G"G>A B>G "Am"E2 "D"D2|
"G"D>E G>E "D"A<A A2|"G"D>E G>B "C"c<c c>e|
"G"d>B g>B "Am"A<A A>B|"G"G>A B>G "Am"E2 "D"D2||
"G"g>a g>e "D"a>g a<b|"G"g>a g>e g<d d>e|
g>a g>e "D"a>g a<b|"G"g<b e>f g2 f>e|
"G"d>B g>B "D"A<A A>B|"G"D>E G>B "C"c<c c>e|
"G"d>B g>B "Am"A<A A>B|"G"G>A B>G "Am"E2 "D"D2||

